Numix-GalliumOS/24/status/indicator-messages.svg

<?xml version="1.0" encoding="UTF-8" standalone="no"?>
<svg
   xmlns:dc="http://purl.org/dc/elements/1.1/"
   xmlns:cc="http://creativecommons.org/ns#"
   xmlns:rdf="http://www.w3.org/1999/02/22-rdf-syntax-ns#"
   xmlns:svg="http://www.w3.org/2000/svg"
   xmlns="http://www.w3.org/2000/svg"
   xmlns:sodipodi="http://sodipodi.sourceforge.net/DTD/sodipodi-0.dtd"
   xmlns:inkscape="http://www.inkscape.org/namespaces/inkscape"
   width="24"
   height="24"
   viewBox="0 0 24 24"
   id="svg2"
   version="1.1"
   inkscape:version="0.91 r"
   sodipodi:docname="indicator-messages.svg">
  <metadata
     id="metadata26">
    <rdf:RDF>
      <cc:Work
         rdf:about="">
        <dc:format>image/svg+xml</dc:format>
        <dc:type
           rdf:resource="http://purl.org/dc/dcmitype/StillImage" />
      </cc:Work>
    </rdf:RDF>
  </metadata>
  <sodipodi:namedview
     pagecolor="#ffffff"
     bordercolor="#666666"
     borderopacity="1"
     objecttolerance="10"
     gridtolerance="10"
     guidetolerance="10"
     inkscape:pageopacity="0"
     inkscape:pageshadow="2"
     inkscape:window-width="1280"
     inkscape:window-height="998"
     id="namedview24"
     showgrid="true"
     inkscape:zoom="13.906433"
     inkscape:cx="7.2721331"
     inkscape:cy="7.0583462"
     inkscape:window-x="0"
     inkscape:window-y="0"
     inkscape:window-maximized="1"
     inkscape:current-layer="svg2">
    <inkscape:grid
       type="xygrid"
       id="grid3029" />
  </sodipodi:namedview>
  <defs
     id="defs4" />
  <path
     style="fill:#ececec;fill-opacity:1"
     inkscape:connector-curvature="0"
     d="M 4,17 19.999999,17 18,14 6,14 z m 5,1 c 0.443211,1.158348 1.611924,2 3,2 1.388076,0 2.556789,-0.841652 3,-2 L 9,18 z M 12.022979,4.0071978 C 9.758286,3.8818939 7.584133,5.4104953 6.704037,7.1966719 6.112069,8.444388 6.084699,8.6407305 6.039691,12.03345 L 6,15 18,15 18,12.313844 C 18,9.5231009 17.95648,8.985223 17.657381,8.0378522 17.344746,7.0476094 16.990242,6.4540201 16.228413,5.6479397 15.049239,4.3349702 13.304308,4.0105781 12.022979,4.0071978 z"
     id="path6" />
</svg>

<svg xmlns="http://www.w3.org/2000/svg" viewBox="0 0 24 24">
 <path d="m 4 17 16 0 -2 -3 -12 0 z m 5 1 c 0.443 1.158 1.612 2 3 2 1.388 0 2.557 -0.842 3 -2 l -6 0 z m 3.02 -13.993 c -2.265 -0.125 -4.439 1.403 -5.319 3.189 -0.592 1.248 -0.619 1.444 -0.664 4.837 l -0.04 2.967 12 0 0 -2.686 c 0 -2.791 -0.044 -3.329 -0.343 -4.276 -0.313 -0.99 -0.667 -1.584 -1.429 -2.39 -1.179 -1.313 -2.924 -1.637 -4.205 -1.641 z" style="fill:#ececec;fill-opacity:1"/>
</svg>
